02_app_working_files/lightroom/product_photo_batch_preset.xmp
<?xml version="1.0" encoding="UTF-8"?>
<x:xmpmeta xmlns:x="adobe:ns:meta/" x:xmptk="XMP Core">
 <rdf:RDF xmlns:rdf="http://www.w3.org/1999/02/22-rdf-syntax-ns#">
  <rdf:Description rdf:about=""
    xmlns:crs="http://ns.adobe.com/camera-raw-settings/1.0/"
    crs:PresetType="Normal"
    crs:Version="17.0"
    crs:ProcessVersion="15.4"
    crs:Exposure2012="+0.10"
    crs:Contrast2012="+8"
    crs:Highlights2012="-15"
    crs:Shadows2012="+12"
    crs:Vibrance="+10"
    crs:Saturation="0">
   <crs:Name>
    <rdf:Alt>
     <rdf:li xml:lang="x-default">Luna Retail Product Photo Batch</rdf:li>
    </rdf:Alt>
   </crs:Name>
   <crs:ShortName>
    <rdf:Alt>
     <rdf:li xml:lang="x-default">Luna Retail Product Batch</rdf:li>
    </rdf:Alt>
   </crs:ShortName>
   <crs:Group>
    <rdf:Alt>
     <rdf:li xml:lang="x-default">Luna Retail</rdf:li>
    </rdf:Alt>
   </crs:Group>
  </rdf:Description>
 </rdf:RDF>
</x:xmpmeta>
